svg/emoji_u1f501.svg

<svg width="128" height="128" viewBox="0 0 128 128" fill="none" xmlns="http://www.w3.org/2000/svg">
<path d="M116 4H12C7.58 4 4 7.58 4 12V116C4 120.42 7.58 124 12 124H116C120.42 124 124 120.42 124 116V12C124 7.58 120.42 4 116 4Z" fill="#F77E00" style="fill:#F77E00;fill:color(display-p3 0.9686 0.4941 0.0000);fill-opacity:1;"/>
<path d="M109.7 4H11.5C7.37002 4.03 4.03002 7.37 4.00002 11.5V109.4C3.99002 113.54 7.34002 116.89 11.48 116.9C11.49 116.9 11.49 116.9 11.5 116.9H109.6C113.74 116.91 117.09 113.56 117.1 109.42C117.1 109.41 117.1 109.41 117.1 109.4V11.5C117.19 7.45 113.97 4.09 109.92 4C109.85 4 109.77 4 109.7 4Z" fill="#FF9800" style="fill:#FF9800;fill:color(display-p3 1.0000 0.5961 0.0000);fill-opacity:1;"/>
<path d="M116 4H12C7.58 4 4 7.58 4 12V116C4 120.42 7.58 124 12 124H116C120.42 124 124 120.42 124 116V12C124 7.58 120.42 4 116 4Z" fill="#427687" style="fill:#427687;fill:color(display-p3 0.2588 0.4627 0.5294);fill-opacity:1;"/>
<path d="M109.7 4H11.5C7.37002 4.03 4.03002 7.37 4.00002 11.5V109.4C3.99002 113.54 7.34002 116.89 11.48 116.9C11.49 116.9 11.49 116.9 11.5 116.9H109.6C113.74 116.91 117.09 113.56 117.1 109.42C117.1 109.41 117.1 109.41 117.1 109.4V11.5C117.19 7.45 113.97 4.09 109.92 4C109.85 4 109.77 4 109.7 4Z" fill="#8CAFBF" style="fill:#8CAFBF;fill:color(display-p3 0.5490 0.6863 0.7490);fill-opacity:1;"/>
<path opacity="0.75" d="M39.6996 12.8999C39.6996 10.5999 38.0996 9.89988 28.8996 10.1999C21.1996 10.4999 17.3996 11.3999 15.0996 14.1999C12.7996 16.9999 12.1996 22.6999 12.0996 29.4999C12.0996 34.2999 12.0996 38.7999 14.5996 38.7999C17.9996 38.7999 17.9996 30.8999 20.7996 26.4999C26.1996 17.7999 39.6996 15.8999 39.6996 12.8999Z" fill="#A0C8D6" style="fill:#A0C8D6;fill:color(display-p3 0.6275 0.7843 0.8392);fill-opacity:1;"/>
<path d="M83.6002 67C81.9202 68.44 79.4002 68.24 77.9602 66.56C77.3502 65.85 77.0102 64.94 77.0002 64V50C77.0002 48.9 76.1002 48 75.0002 48H41.0002C36.2002 48 29.5002 49.5 29.0002 60L14.2002 73.3C13.4002 70.27 12.9902 67.14 13.0002 64C13.0002 46.3 25.5002 32 41.0002 32H75.0002C76.1002 32 77.0002 31.1 77.0002 30V16C77.0202 13.79 78.8302 12.02 81.0402 12.04C81.9802 12.05 82.8902 12.39 83.6002 13L107.6 37C109.26 38.46 109.42 40.99 107.95 42.65C107.84 42.78 107.72 42.89 107.6 43L83.6002 67Z" fill="#FAFAFA" style="fill:#FAFAFA;fill:color(display-p3 0.9804 0.9804 0.9804);fill-opacity:1;"/>
<path d="M38.4005 61C40.0805 59.56 42.6005 59.7599 44.0405 61.4399C44.6505 62.1499 44.9905 63.06 45.0005 64V78C45.0005 79.1 45.9005 80 47.0005 80H81.0005C85.8005 80 92.6005 78.5 93.0005 68L107.8 54.7C108.61 57.73 109.01 60.86 109 64C109 81.7 96.5005 96 81.0005 96H47.0005C45.9005 96 45.0005 96.9 45.0005 98V112C44.9805 114.21 43.1705 115.98 40.9605 115.96C40.0205 115.95 39.1105 115.61 38.4005 115L14.4005 91C12.7405 89.54 12.5805 87.0099 14.0505 85.3499C14.1605 85.2199 14.2805 85.11 14.4005 85L38.4005 61Z" fill="#FAFAFA" style="fill:#FAFAFA;fill:color(display-p3 0.9804 0.9804 0.9804);fill-opacity:1;"/>
</svg>

<?xml version="1.0" encoding="utf-8"?>
<!-- Generator: Adobe Illustrator 25.2.3, SVG Export Plug-In . SVG Version: 6.00 Build 0)  -->
<svg version="1.1" id="Layer_2" xmlns="http://www.w3.org/2000/svg" xmlns:xlink="http://www.w3.org/1999/xlink" x="0px" y="0px"
	 viewBox="0 0 128 128" style="enable-background:new 0 0 128 128;" xml:space="preserve">
<g>
	<path style="fill:#F77E00;" d="M116,4H12c-4.42,0-8,3.58-8,8v104c0,4.42,3.58,8,8,8h104c4.42,0,8-3.58,8-8V12
		C124,7.58,120.42,4,116,4z"/>
	<path style="fill:#FF9800;" d="M109.7,4H11.5C7.37,4.03,4.03,7.37,4,11.5v97.9c-0.01,4.14,3.34,7.49,7.48,7.5c0.01,0,0.01,0,0.02,0
		h98.1c4.14,0.01,7.49-3.34,7.5-7.48c0-0.01,0-0.01,0-0.02V11.5c0.09-4.05-3.13-7.41-7.18-7.5C109.85,4,109.77,4,109.7,4z"/>
	<path style="opacity:0.75;fill:#FFBD52;enable-background:new    ;" d="M39.7,12.9c0-2.3-1.6-3-10.8-2.7c-7.7,0.3-11.5,1.2-13.8,4
		s-2.9,8.5-3,15.3c0,4.8,0,9.3,2.5,9.3c3.4,0,3.4-7.9,6.2-12.3C26.2,17.8,39.7,15.9,39.7,12.9z"/>
	<path style="fill:#FAFAFA;" d="M83.6,67c-1.68,1.44-4.2,1.24-5.64-0.44C77.35,65.85,77.01,64.94,77,64V50c0-1.1-0.9-2-2-2H41
		c-4.8,0-11.5,1.5-12,12L14.2,73.3l0,0c-0.8-3.03-1.21-6.16-1.2-9.3c0-17.7,12.5-32,28-32h34c1.1,0,2-0.9,2-2V16
		c0.02-2.21,1.83-3.98,4.04-3.96c0.94,0.01,1.85,0.35,2.56,0.96l24,24c1.66,1.46,1.82,3.99,0.35,5.65
		c-0.11,0.13-0.23,0.24-0.35,0.35L83.6,67z"/>
	<path style="fill:#FAFAFA;" d="M38.4,61c1.68-1.44,4.2-1.24,5.64,0.44c0.61,0.71,0.95,1.62,0.96,2.56v14c0,1.1,0.9,2,2,2h34
		c4.8,0,11.6-1.5,12-12l14.8-13.3l0,0c0.81,3.03,1.21,6.16,1.2,9.3c0,17.7-12.5,32-28,32H47c-1.1,0-2,0.9-2,2v14
		c-0.02,2.21-1.83,3.98-4.04,3.96c-0.94-0.01-1.85-0.35-2.56-0.96l-24-24c-1.66-1.46-1.82-3.99-0.35-5.65
		c0.11-0.13,0.23-0.24,0.35-0.35L38.4,61z"/>
</g>
</svg>
